svgs/solid/shop.svg

<svg xmlns="http://www.w3.org/2000/svg" viewBox="0 0 640 512"><!--! Font Awesome Pro 6.6.0 by @fontawesome - https://fontawesome.com License - https://fontawesome.com/license (Commercial License) Copyright 2024 Fonticons, Inc. --><path d="M36.8 192l566.3 0c20.3 0 36.8-16.5 36.8-36.8c0-7.3-2.2-14.4-6.2-20.4L558.2 21.4C549.3 8 534.4 0 518.3 0L121.7 0c-16 0-31 8-39.9 21.4L6.2 134.7c-4 6.1-6.2 13.2-6.2 20.4C0 175.5 16.5 192 36.8 192zM64 224l0 160 0 80c0 26.5 21.5 48 48 48l224 0c26.5 0 48-21.5 48-48l0-80 0-160-64 0 0 160-192 0 0-160-64 0zm448 0l0 256c0 17.7 14.3 32 32 32s32-14.3 32-32l0-256-64 0z"/></svg>

<svg xmlns="http://www.w3.org/2000/svg" viewBox="0 0 640 512"><!--! Font Awesome Pro 6.5.2 by @fontawesome - https://fontawesome.com License - https://fontawesome.com/license (Commercial License) Copyright 2024 Fonticons, Inc. --><path d="M36.8 192H603.2c20.3 0 36.8-16.5 36.8-36.8c0-7.3-2.2-14.4-6.2-20.4L558.2 21.4C549.3 8 534.4 0 518.3 0H121.7c-16 0-31 8-39.9 21.4L6.2 134.7c-4 6.1-6.2 13.2-6.2 20.4C0 175.5 16.5 192 36.8 192zM64 224V384v80c0 26.5 21.5 48 48 48H336c26.5 0 48-21.5 48-48V384 224H320V384H128V224H64zm448 0V480c0 17.7 14.3 32 32 32s32-14.3 32-32V224H512z"/></svg>
